X:125
T:Musical priest, The
R:Reel
O:Ireland
M:4/4
K:Bm
BA|\
FB BA B2Bd|cB Af ec BA|FB BA BA Bd|cB Ac B2::
Bc|\
d2 dc df ed|(3cBA eA fA eA|\
dc Bc de fb|af ec B2::
Bc|\
dB (3BBB ba fb|af ec AB ce|\
dB (3BBB ba fb|af ec B2:|
